X:437
T: Zhonghua
N: C1472
O: China,Hunan, Changde
S: I, 552]
R: Wuge, Huagu, Dengdiao]
M: 2/4
L: 1/32
K: D
d4F4F2A2d4 | F4A4A8 | d4B2A2F4A4 | E2E2FED2E8 |
E4A4A4F2E2 | D6E2F8 |
e2f2e2d2 | B4B8d2e2 | d4d4f4B4 | A16 |
F4D4E8 | D4F4E8 | E4A4A4F2E2 | D4E4F8 |
e2f2e2d2 | B4B8d2e2 | d4d4f4B4 | A16

@@@ Tune index: 6438
